web/themes/custom/kp_theme/graphics/box-arrow-right.svg

<?xml version="1.0" encoding="UTF-8" standalone="no"?>
<!DOCTYPE svg PUBLIC "-//W3C//DTD SVG 1.1//EN" "http://www.w3.org/Graphics/SVG/1.1/DTD/svg11.dtd">
<svg width="100%" height="100%" viewBox="0 0 16 16" version="1.1" xmlns="http://www.w3.org/2000/svg" xmlns:xlink="http://www.w3.org/1999/xlink" xml:space="preserve" xmlns:serif="http://www.serif.com/" style="fill-rule:evenodd;clip-rule:evenodd;stroke-linejoin:round;stroke-miterlimit:2;">
    <g>
        <path d="M10,12.5C10,12.774 9.774,13 9.5,13L1.5,13C1.226,13 1,12.774 1,12.5L1,3.5C1,3.226 1.226,3 1.5,3L9.5,3C9.774,3 10,3.226 10,3.5L10,5.5C10,5.774 10.226,6 10.5,6C10.774,6 11,5.774 11,5.5L11,3.5C11,2.677 10.323,2 9.5,2L1.5,2C0.677,2 -0,2.677 0,3.5L0,12.5C0,13.323 0.677,14 1.5,14L9.5,14C10.323,14 11,13.323 11,12.5L11,10.5C11,10.226 10.774,10 10.5,10C10.226,10 10,10.226 10,10.5L10,12.5Z" style="fill:rgb(94,94,94);"/>
        <path d="M15.854,8.354C15.948,8.26 16.001,8.133 16.001,8C16.001,7.867 15.948,7.74 15.854,7.646L12.854,4.646C12.76,4.552 12.633,4.499 12.5,4.499C12.225,4.499 11.999,4.725 11.999,5C11.999,5.133 12.052,5.26 12.146,5.354L14.293,7.5L5.5,7.5C5.226,7.5 5,7.726 5,8C5,8.274 5.226,8.5 5.5,8.5L14.293,8.5L12.146,10.646C12.052,10.74 11.999,10.867 11.999,11C11.999,11.275 12.225,11.501 12.5,11.501C12.633,11.501 12.76,11.448 12.854,11.354L15.854,8.354Z" style="fill:rgb(94,94,94);"/>
    </g>
</svg>

<svg xmlns="http://www.w3.org/2000/svg" width="16" height="16" fill="currentColor" class="bi bi-box-arrow-right" viewBox="0 0 16 16">
  <path fill-rule="evenodd" d="M10 12.5a.5.5 0 0 1-.5.5h-8a.5.5 0 0 1-.5-.5v-9a.5.5 0 0 1 .5-.5h8a.5.5 0 0 1 .5.5v2a.5.5 0 0 0 1 0v-2A1.5 1.5 0 0 0 9.5 2h-8A1.5 1.5 0 0 0 0 3.5v9A1.5 1.5 0 0 0 1.5 14h8a1.5 1.5 0 0 0 1.5-1.5v-2a.5.5 0 0 0-1 0v2z"/>
  <path fill-rule="evenodd" d="M15.854 8.354a.5.5 0 0 0 0-.708l-3-3a.5.5 0 0 0-.708.708L14.293 7.5H5.5a.5.5 0 0 0 0 1h8.793l-2.147 2.146a.5.5 0 0 0 .708.708l3-3z"/>
</svg>
